static/fa/svgs/solid/file-word.svg

<svg xmlns="http://www.w3.org/2000/svg" viewBox="0 0 384 512"><!--! Font Awesome Free 6.1.1 by @fontawesome - https://fontawesome.com License - https://fontawesome.com/license/free (Icons: CC BY 4.0, Fonts: SIL OFL 1.1, Code: MIT License) Copyright 2022 Fonticons, Inc.--><path d="M224 128V0H48C21.49 0 0 21.49 0 48v416c0 26.5 21.49 48 48 48h288c26.51 0 48-21.49 48-48V160H256.9c-18.6 0-32.9-14.3-32.9-32zm57.5 112h23.37c7.717 0 13.43 7.18 11.69 14.7l-42.46 184c-1.2 5.4-6.1 9.3-11.6 9.3h-29.26a12.002 12.002 0 0 1-11.59-8.883L192 329.1l-29.61 109.1c-2.29 6.2-6.19 9.8-11.59 9.8h-29.3a11.993 11.993 0 0 1-11.69-9.305l-42.46-184C65.66 247.2 71.37 240 79.08 240h23.37c5.588 0 10.44 3.859 11.69 9.301L137.8 352l27.8-103.1c1.4-5.3 6.2-8.9 11.6-8.9h29.61c5.426 0 10.18 3.641 11.59 8.883L246.2 352l23.7-102.7c1.2-5.4 5.2-9.3 11.6-9.3zM256 0v128h128L256 0z"/></svg>

<svg xmlns="http://www.w3.org/2000/svg" viewBox="0 0 384 512"><!--! Font Awesome Free 6.1.1 by @fontawesome - https://fontawesome.com License - https://fontawesome.com/license/free (Icons: CC BY 4.0, Fonts: SIL OFL 1.1, Code: MIT License) Copyright 2022 Fonticons, Inc. --><path d="M224 128L224 0H48C21.49 0 0 21.49 0 48v416C0 490.5 21.49 512 48 512h288c26.51 0 48-21.49 48-48V160h-127.1C238.3 160 224 145.7 224 128zM281.5 240h23.37c7.717 0 13.43 7.18 11.69 14.7l-42.46 184C272.9 444.1 268 448 262.5 448h-29.26c-5.426 0-10.18-3.641-11.59-8.883L192 329.1l-29.61 109.1C160.1 444.4 156.2 448 150.8 448H121.5c-5.588 0-10.44-3.859-11.69-9.305l-42.46-184C65.66 247.2 71.37 240 79.08 240h23.37c5.588 0 10.44 3.859 11.69 9.301L137.8 352L165.6 248.9C167 243.6 171.8 240 177.2 240h29.61c5.426 0 10.18 3.641 11.59 8.883L246.2 352l23.7-102.7C271.1 243.9 275.1 240 281.5 240zM256 0v128h128L256 0z"/></svg>
